src/assets/Images/about/why_3.svg

<svg width="59" height="76" viewBox="0 0 59 76" fill="none" xmlns="http://www.w3.org/2000/svg">
<g id="Group 3523">
<path id="Vector" d="M52 13.1698V15.9623L38.5955 8.22641C33.5215 5.32075 26.4406 5.32075 21.4045 8.22641L8 16V13.1698C8 4.67924 12.6575 0 21.1773 0H38.8227C47.3425 0 52 4.67924 52 13.1698Z" fill="#C4AB73"/>
<path id="Vector_2" d="M51.7297 22.8279L51.1968 22.5624L46.02 19.6041L35.2858 13.4222C32.0123 11.5259 26.9877 11.5259 23.7142 13.4222L12.98 19.5662L7.80323 22.6003L7.11806 22.9416C0.456774 27.4169 0 28.2513 0 35.4193V52.5618C0 59.7298 0.456774 60.5641 7.27032 65.1532L23.7142 74.5967C25.351 75.5828 27.4065 76 29.5 76C31.5555 76 33.649 75.5449 35.2858 74.5967L51.8819 65.0394C58.5813 60.5641 59 59.7677 59 52.5618V35.4193C59 28.2513 58.5432 27.4169 51.7297 22.8279ZM40.12 43.8009L37.7981 46.6453C37.4174 47.0625 37.151 47.859 37.189 48.4279L37.4174 52.0687C37.5697 54.3064 35.971 55.4441 33.8774 54.6477L30.4897 53.2824C29.9568 53.0927 29.0813 53.0927 28.5484 53.2824L25.1606 54.6098C23.0671 55.4441 21.4684 54.2684 21.6206 52.0308L21.849 48.3899C21.8871 47.821 21.6206 47.0246 21.24 46.6074L18.88 43.8009C17.4335 42.0942 18.0806 40.1979 20.2503 39.629L23.7903 38.7188C24.3613 38.5671 25.0084 38.0361 25.3129 37.581L27.2923 34.547C28.5103 32.6507 30.4516 32.6507 31.7077 34.547L33.6871 37.581C33.9916 38.0741 34.6768 38.5671 35.2097 38.7188L38.7497 39.629C40.9194 40.1979 41.5665 42.0942 40.12 43.8009Z" fill="#C4AB73"/>
</g>
</svg>

<svg xmlns="http://www.w3.org/2000/svg" width="59" height="76" fill="none"><g fill="#C4AB73"><path d="M52 13.17v2.792L38.596 8.226c-5.074-2.905-12.155-2.905-17.191 0L8 16v-2.83C8 4.68 12.658 0 21.177 0h17.646C47.343 0 52 4.68 52 13.17Z"/><path d="m51.73 22.828-.533-.266-5.177-2.958-10.734-6.182c-3.274-1.896-8.298-1.896-11.572 0L12.98 19.566 7.803 22.6l-.685.342C.457 27.417 0 28.252 0 35.419v17.143c0 7.168.457 8.002 7.27 12.591l16.444 9.444C25.351 75.583 27.407 76 29.5 76c2.055 0 4.149-.455 5.786-1.403l16.596-9.558C58.582 60.564 59 59.768 59 52.562V35.419c0-7.168-.457-8.002-7.27-12.591ZM40.12 43.8l-2.322 2.844c-.38.417-.647 1.214-.609 1.783l.228 3.64c.153 2.238-1.446 3.376-3.54 2.58l-3.387-1.366c-.533-.19-1.409-.19-1.942 0l-3.387 1.328c-2.094.834-3.693-.342-3.54-2.58l.228-3.64c.038-.569-.228-1.365-.609-1.783l-2.36-2.806c-1.447-1.707-.8-3.603 1.37-4.172l3.54-.91c.571-.152 1.218-.683 1.523-1.138l1.98-3.034c1.217-1.896 3.159-1.896 4.415 0l1.98 3.034c.304.493.989.986 1.522 1.138l3.54.91c2.17.569 2.816 2.465 1.37 4.172Z"/></g></svg>
